src/lib/assets/images/linkedin.svg

<svg width="40" height="40" viewBox="0 0 40 40" fill="none" xmlns="http://www.w3.org/2000/svg">
<path d="M31.6667 0H8.33333C3.73167 0 0 3.73167 0 8.33333V31.6667C0 36.2683 3.73167 40 8.33333 40H31.6667C36.27 40 40 36.2683 40 31.6667V8.33333C40 3.73167 36.27 0 31.6667 0ZM13.3333 31.6667H8.33333V13.3333H13.3333V31.6667ZM10.8333 11.22C9.22333 11.22 7.91667 9.90333 7.91667 8.28C7.91667 6.65667 9.22333 5.34 10.8333 5.34C12.4433 5.34 13.75 6.65667 13.75 8.28C13.75 9.90333 12.445 11.22 10.8333 11.22ZM33.3333 31.6667H28.3333V22.3267C28.3333 16.7133 21.6667 17.1383 21.6667 22.3267V31.6667H16.6667V13.3333H21.6667V16.275C23.9933 11.965 33.3333 11.6467 33.3333 20.4017V31.6667Z" fill="#0077B5"/>
</svg>

<svg xmlns="http://www.w3.org/2000/svg" width="40" height="40" fill="none"><path fill="#0077B5" d="M31.667 0H8.333A8.334 8.334 0 0 0 0 8.333v23.334A8.334 8.334 0 0 0 8.333 40h23.334A8.333 8.333 0 0 0 40 31.667V8.333A8.333 8.333 0 0 0 31.667 0ZM13.333 31.667h-5V13.333h5v18.334Zm-2.5-20.447c-1.61 0-2.916-1.317-2.916-2.94s1.306-2.94 2.916-2.94c1.61 0 2.917 1.317 2.917 2.94s-1.305 2.94-2.917 2.94Zm22.5 20.447h-5v-9.34c0-5.614-6.666-5.189-6.666 0v9.34h-5V13.333h5v2.942c2.326-4.31 11.666-4.628 11.666 4.127v11.265Z"/></svg>
